X: 23663
T: Limestone Rock, The
R: reel
M: 4/4
K: Gmajor
dc|BG G2 AG G2|DG G2 A2 dc|BG G2 AGAB|cABG A2 dc|
BG G2 AG G2|DGG2 A2 dc|BG G2 AGAB|cABG A2 (3Bcd||
e2 dg eB B2|eBdB A2 (3Bcd|eB B2 gB B2|cABG A2 (3Bcd|
e3d ea a2|gedB A2 BA|G2 (3Bcd g3b|agef gedc||

